svg/earth.svg

<?xml version="1.0" encoding="iso-8859-1"?>
<!-- Generator: Adobe Illustrator 16.0.0, SVG Export Plug-In . SVG Version: 6.00 Build 0)  -->
<!DOCTYPE svg PUBLIC "-//W3C//DTD SVG 1.1//EN" "http://www.w3.org/Graphics/SVG/1.1/DTD/svg11.dtd">
<svg version="1.1" id="Capa_1" xmlns="http://www.w3.org/2000/svg" xmlns:xlink="http://www.w3.org/1999/xlink" x="0px" y="0px"
	 width="487.015px" height="487.015px" viewBox="0 0 487.015 487.015" style="enable-background:new 0 0 487.015 487.015; fill:#433850;"
	 xml:space="preserve">
<g>
	<path d="M484.681,213.47c-4.498-40.879-19.541-78.226-43.869-111.5c-39.194-53.578-91.611-86.336-157.067-97.74
		C270.694,1.959,257.347,1.368,244.137,0c-0.878,0-1.75,0-2.622,0c-12.342,1.351-24.737,2.246-36.993,4.129
		C78.665,23.442-12.331,142.612,2.056,269.395c6.865,60.515,32.214,112.121,77.215,153.278
		c53.504,48.941,117.062,69.925,189.118,63.079c55.301-5.271,103.557-27.573,143.33-66.489
		C469.479,362.702,493.5,293.564,484.681,213.47z M433.4,338.072c-6.153-10.729-13.92-25.688-17.39-38.455
		c-5.042-18.537-17.147-0.627-18.158,11.479s-9.078,21.184-25.221,3.025c-16.143-18.157-19.169-14.126-24.211-14.126
		s-14.121,12.104-12.105,68.601c1.437,40.335,17.349,46.736,27.746,49.662c-19.305,13.264-41.488,23.714-66.385,30.038
		c-95.157,24.151-192.289-19.706-237.671-106.837c-42.28-81.185-21.681-173.053,21.299-223.616
		c1.156,9.094,2.288,17.263,3.23,25.464c2.562,22.39,0.629,44.487-3.939,66.496c-0.976,4.69-0.636,10.033,0.629,14.646
		c0.688,2.519,4.486,5.494,7.11,5.743c2.066,0.201,5.671-3.074,6.508-5.533c1.513-4.397,1.575-9.327,2.04-14.053
		c0.334-3.334,0.34-6.712,0.57-11.942c3.413,2.766,5.902,4.444,7.971,6.525c5.272,5.308,10.604,10.592,15.415,16.299
		c2.125,2.533,4.315,6.079,4.256,9.129c-0.133,6.525,2.73,10.962,6.227,16.086c3.886,5.698,5.636,12.862,8.136,19.459
		c1.046,2.766,1.265,5.887,2.512,8.547c2.663,5.697,6.688,9.599,13.607,10.024c7.279,0.461,10.004,3.286,11.05,10.733
		c-1.862,0.213-3.715,0.462-5.574,0.633c-8.878,0.846-13.278,4.924-12.927,13.879c0.694,17.785,7.11,33.324,20.312,45.678
		c3.638,3.411,7.503,6.579,11.038,10.072c8.074,7.974,10.891,17.342,7.01,28.354c-1.859,5.249-4.407,10.403-5.231,15.83
		c-0.839,5.514-0.845,11.508,0.432,16.904c1.324,5.615,0.756,17.897,6.555,16.881c10.258-1.803,16.154,0.219,16.952-11.266
		c0.151-2.188-0.018-2.459-0.6-4.48c-3.05-10.781,10.799-41.387,19.109-46.967c7.099-4.776,14.218-9.635,20.652-15.244
		c9.276-8.062,13.429-18.477,9.531-30.605c-3.668-11.414,0.623-19.795,8.603-27.143c8.14-7.489,13.477-16.119,12.921-27.645
		c-0.556-11.526-8.098-19.849-17.927-18.666c-4.806,0.567-9.413,2.872-14.098,4.45c-6.868,2.323-13.571,5.574-20.62,6.839
		c-9.88,1.75-15.968-4.705-20.375-12.543c-3.546-6.301-4.714-6.785-10.87-2.86c-5.193,3.322-10.376,6.667-15.755,9.67
		c-5.588,3.121-8.633,1.963-12.941-2.707c-2.548-2.755-6.076-4.693-9.351-6.679c-2.355-1.442-5.539-1.839-7.427-3.647
		c-2.53-2.447-6.059-6.076-5.701-8.729c0.417-3.115,4.025-7.014,7.172-8.29c5.423-2.199,11.585-2.554,17.401-3.818
		c3.097-0.674,6.239-1.375,9.167-2.53c4.008-1.599,3.839-4.232,0.771-6.703c-1.513-1.215-3.384-2.069-5.208-2.802
		c-8.866-3.57-17.782-6.984-26.643-10.568c-2.202-0.884-4.371-1.971-6.348-3.263c-5.571-3.661-6.242-7.692-1.188-12.152
		c19.955-17.602,43.264-22.756,63.916,0.63c6.398,7.243,10.737,16.275,16.778,23.876c4.752,5.994,10.223,11.621,16.263,16.246
		c2.489,1.9,8.086,2.223,10.87,0.697c4.146-2.27,4.291-7.444,2.205-11.759c-1.803-3.748-3.922-7.442-6.469-10.722
		c-11.733-15.117-10.926-44.576,12.055-56.867c7.687-4.117,15.441-8.453,19.112-19.497c-4.403,1.191-7.596,1.959-10.723,2.917
		c-17.451,5.405-5.302-7.613,2.726-9.883c4.876-1.386-4.362-5.122-4.362-5.122c0.219-0.381,6.135-2.069,12.714-4.874
		c4.527-1.924,9.155-4.09,12.915-7.152c2.436-1.998,3.375-5.816,4.977-8.819c-0.407-0.473-0.804-0.934-1.217-1.407
		c-4.611,0.621-9.216,1.303-13.838,1.824c-7.832,0.877-9.67-0.659-10.396-8.559c-0.503-5.394-6-8.334-11.133-5.568
		c-3.473,1.883-6.476,4.613-9.818,6.773c-7.716,4.998-13.485,3-16.512-5.618c-1.803-5.13-4.314-6.1-9.034-3.227
		c-2.374,1.442-4.354,3.549-6.768,4.897c-3.958,2.211-7.982,4.43-12.232,5.932c-4.14,1.466-9.126,2.53-11.943-2.01
		c-3.026-4.882-0.381-9.635,3.435-12.696c4.743-3.807,10.211-6.762,15.548-9.753c7.602-4.279,15.652-7.838,22.993-12.504
		c5.388-3.438,7.743-9.041,6-15.652c-1.472-5.58-5.205-7.468-10.374-4.909c-4.268,2.119-7.997,5.435-12.386,7.143
		c-3.207,1.229-7.203,1.242-10.646,0.636c-1.271-0.225-2.622-3.747-2.657-5.792c-0.024-1.179,2.367-3.227,3.892-3.476
		c10.604-1.652,21.255-3.05,31.921-4.265c1.41-0.154,3.529,0.718,4.413,1.844c7.045,8.893,16.875,13.208,27.216,16.287
		c8.688,2.58,9.947,1.351,11.142-7.764c11.159-2.627,22.502-7.803,33.732-0.721c6.23,3.921,11.91,8.917,17.183,14.091
		c1.307,1.288,0.509,5.272-0.118,7.838c-0.827,3.448-2.736,6.635-3.617,10.083c-1.702,6.682,2.618,11.904,9.522,11.795
		c2.181-0.047,4.356-0.494,6.549-0.603c6.378-0.298,8.642,2.143,8.057,8.583c-0.828,9.126,0.691,10.223,9.9,8.665
		c2.647-0.446,5.704,0.756,8.405,1.703c1.607,0.567,2.854,2.107,4.285,3.188c8.564,6.49,15.113,4.058,17.62-6.561
		c0.271-1.156,0.236-2.391,0.473-3.559c0.993-4.764,3.683-5.99,6.897-2.604c6.81,7.211,13.199,14.824,20.108,22.686
		c-7.424,6.809-7.672,15.084-6.028,23.193c1.826,9.021-0.55,16.858-4.108,24.805c-3.41,7.613-7.157,15.179-9.434,23.144
		c-3.404,11.955,0.461,17.416,12.602,20.062c11.585,2.529,13.482,4.858,13.92,16.184c0.585,15.448,8.518,26.11,22.071,32.914
		c3.009,1.501,6.206,2.642,9.279,3.919C451.83,289.775,445.032,314.559,433.4,338.072z"/>
</g>
<g>
</g>
<g>
</g>
<g>
</g>
<g>
</g>
<g>
</g>
<g>
</g>
<g>
</g>
<g>
</g>
<g>
</g>
<g>
</g>
<g>
</g>
<g>
</g>
<g>
</g>
<g>
</g>
<g>
</g>
</svg>

<?xml version="1.0" encoding="utf-8"?>
<svg version="1.1" id="Capa_1" x="0px" y="0px" width="487.015px" height="487.015px" viewBox="0 0 487.015 487.015" style="enable-background:new 0 0 487.015 487.015; fill:#433850;" xmlns="http://www.w3.org/2000/svg">
  <path d="M 484.681 213.47 C 480.183 172.591 465.14 135.244 440.812 101.97 C 401.618 48.392 349.201 15.634 283.745 4.23 C 270.694 1.959 257.347 1.368 244.137 0 C 243.259 0 242.387 0 241.515 0 C 229.173 1.351 216.778 2.246 204.522 4.129 C 78.665 23.442 -12.331 142.612 2.056 269.395 C 8.921 329.91 34.27 381.516 79.271 422.673 C 132.775 471.614 196.333 492.598 268.389 485.752 C 323.69 480.481 371.946 458.179 411.719 419.263 C 469.479 362.702 493.5 293.564 484.681 213.47 Z M 433.4 338.072 C 427.247 327.343 419.48 312.384 416.01 299.617 C 410.968 281.08 398.863 298.99 397.852 311.096 C 396.841 323.202 388.774 332.28 372.631 314.121 C 356.488 295.964 353.462 299.995 348.42 299.995 C 343.378 299.995 334.299 312.099 336.315 368.596 C 337.752 408.931 353.664 415.332 364.061 418.258 C 344.756 431.522 322.573 441.972 297.676 448.296 C 202.519 472.447 105.387 428.59 60.005 341.459 C 17.725 260.274 38.324 168.406 81.304 117.843 C 82.46 126.937 83.592 135.106 84.534 143.307 C 87.096 165.697 85.163 187.794 80.595 209.803 C 79.619 214.493 79.959 219.836 81.224 224.449 C 81.912 226.968 85.71 229.943 88.334 230.192 C 90.4 230.393 94.005 227.118 94.842 224.659 C 96.355 220.262 96.417 215.332 96.882 210.606 C 97.216 207.272 97.222 203.894 97.452 198.664 C 100.865 201.43 103.354 203.108 105.423 205.189 C 110.695 210.497 116.027 215.781 120.838 221.488 C 122.963 224.021 125.153 227.567 125.094 230.617 C 124.961 237.142 127.824 241.579 131.321 246.703 C 135.207 252.401 136.957 259.565 139.457 266.162 C 140.503 268.928 140.722 272.049 141.969 274.709 C 144.632 280.406 148.657 284.308 155.576 284.733 C 162.855 285.194 165.58 288.019 166.626 295.466 C 164.764 295.679 162.911 295.928 161.052 296.099 C 152.174 296.945 147.774 301.023 148.125 309.978 C 148.819 327.763 155.235 343.302 168.437 355.656 C 172.075 359.067 175.94 362.235 179.475 365.728 C 187.549 373.702 190.366 383.07 186.485 394.082 C 184.626 399.331 182.078 404.485 181.254 409.912 C 180.415 415.426 180.409 421.42 181.686 426.816 C 183.01 432.431 182.442 444.713 188.241 443.697 C 198.499 441.894 204.395 443.916 205.193 432.431 C 205.344 430.243 205.175 429.972 204.593 427.951 C 201.543 417.17 215.392 386.564 223.702 380.984 C 230.801 376.208 237.92 371.349 244.354 365.74 C 253.63 357.678 257.783 347.263 253.885 335.135 C 250.217 323.721 254.508 315.34 262.488 307.992 C 270.628 300.503 275.965 291.873 275.409 280.347 C 274.853 268.821 267.311 260.498 257.482 261.681 C 252.676 262.248 248.069 264.553 243.384 266.131 C 236.516 268.454 229.813 271.705 222.764 272.97 C 212.884 274.72 206.796 268.265 202.389 260.427 C 198.843 254.126 197.675 253.642 191.519 257.567 C 186.326 260.889 181.143 264.234 175.764 267.237 C 170.176 270.358 167.131 269.2 162.823 264.53 C 160.275 261.775 156.747 259.837 153.472 257.851 C 151.117 256.409 147.933 256.012 146.045 254.204 C 143.515 251.757 139.986 248.128 140.344 245.475 C 140.761 242.36 144.369 238.461 147.516 237.185 C 152.939 234.986 159.101 234.631 164.917 233.367 C 168.014 232.693 171.156 231.992 174.084 230.837 C 178.092 229.238 177.923 226.605 174.855 224.134 C 173.342 222.919 171.471 222.065 169.647 221.332 C 160.781 217.762 151.865 214.348 143.004 210.764 C 140.802 209.88 138.633 208.793 136.656 207.501 C 131.085 203.84 130.414 199.809 135.468 195.349 C 155.423 177.747 178.732 172.593 199.384 195.979 C 205.782 203.222 210.121 212.254 216.162 219.855 C 220.914 225.849 226.385 231.476 232.425 236.101 C 234.914 238.001 240.511 238.324 243.295 236.798 C 247.441 234.528 247.586 229.354 245.5 225.039 C 243.697 221.291 241.578 217.597 239.031 214.317 C 227.298 199.2 228.105 169.741 251.086 157.45 C 258.773 153.333 266.527 148.997 270.198 137.953 C 265.795 139.144 262.602 139.912 259.475 140.87 C 242.024 146.275 254.173 133.257 262.201 130.987 C 267.077 129.601 257.839 125.865 257.839 125.865 C 258.058 125.484 263.974 123.796 270.553 120.991 C 275.08 119.067 279.708 116.901 283.468 113.839 C 285.904 111.841 286.843 108.023 288.445 105.02 C 288.038 104.547 287.641 104.086 287.228 103.613 C 282.617 104.234 278.012 104.916 273.39 105.437 C 265.558 106.314 263.72 104.778 262.994 96.878 C 262.491 91.484 256.994 88.544 251.861 91.31 C 248.388 93.193 245.385 95.923 242.043 98.083 C 234.327 103.081 228.558 101.083 225.531 92.465 C 223.728 87.335 221.217 86.365 216.497 89.238 C 214.123 90.68 212.143 92.787 209.729 94.135 C 205.771 96.346 201.747 98.565 197.497 100.067 C 193.357 101.533 188.371 102.597 185.554 98.057 C 182.528 93.175 185.173 88.422 188.989 85.361 C 193.732 81.554 199.2 78.599 204.537 75.608 C 212.139 71.329 220.189 67.77 227.53 63.104 C 232.918 59.666 235.273 54.063 233.53 47.452 C 232.058 41.872 228.325 39.984 223.156 42.543 C 218.888 44.662 215.159 47.978 210.77 49.686 C 207.563 50.915 203.567 50.928 200.124 50.322 C 198.853 50.097 197.502 46.575 197.467 44.53 C 197.443 43.351 199.834 41.303 201.359 41.054 C 211.963 39.402 222.614 38.004 233.28 36.789 C 234.69 36.635 236.809 37.507 237.693 38.633 C 244.738 47.526 254.568 51.841 264.909 54.92 C 273.597 57.5 274.856 56.271 276.051 47.156 C 287.21 44.529 298.553 39.353 309.783 46.435 C 316.013 50.356 321.693 55.352 326.966 60.526 C 328.273 61.814 327.475 65.798 326.848 68.364 C 326.021 71.812 324.112 74.999 323.231 78.447 C 321.529 85.129 325.849 90.351 332.753 90.242 C 334.934 90.195 337.109 89.748 339.302 89.639 C 345.68 89.341 347.944 91.782 347.359 98.222 C 346.531 107.348 348.05 108.445 357.259 106.887 C 359.906 106.441 362.963 107.643 365.664 108.59 C 367.271 109.157 368.518 110.697 369.949 111.778 C 378.513 118.268 385.062 115.836 387.569 105.217 C 387.84 104.061 387.805 102.826 388.042 101.658 C 389.035 96.894 391.725 95.668 394.939 99.054 C 401.749 106.265 408.138 113.878 415.047 121.74 C 407.623 128.549 407.375 136.824 409.019 144.933 C 410.845 153.954 408.469 161.791 404.911 169.738 C 401.501 177.351 397.754 184.917 395.477 192.882 C 392.073 204.837 395.938 210.298 408.079 212.944 C 419.664 215.473 421.561 217.802 421.999 229.128 C 422.584 244.576 430.517 255.238 444.07 262.042 C 447.079 263.543 450.276 264.684 453.349 265.961 C 451.83 289.775 445.032 314.559 433.4 338.072 Z"/>
</svg>
